X: 1
T: Polska efter G\aasvikarn
S: Bronwen Bird, at 2010 Fiddle Hell
M: 3/4
L: 1/8
K: C
|: e>d c2 E>G | F>G A2 A>A | d>c (3BdB GB |1,3 ed (3cec Gc :|2,4 ed c4 :|
|: E>G E>G E>G | F>A F>A F2 | d>c (3BdB GB |1,3 e>d (3cec GF :|2,4 ed c4 :|
